source/images/social-facebook.svg

<svg width="20" height="20" viewBox="0 0 20 20" fill="none" xmlns="http://www.w3.org/2000/svg"><path d="M12 1C9.8 1 8 2.8 8 5v2H5v4h3v8h4v-8h3V7h-3V5h3V1h-3z" fill="#83B3D3"/></svg>

<svg width="20" height="20" viewBox="0 0 20 20" fill="none" xmlns="http://www.w3.org/2000/svg">
<path d="M12 1C9.8 1 8 2.8 8 5V7H5V11H8V19H12V11H15V7H12V5H15V1H12Z" fill="#83B3D3"/>
</svg>
